X:1
T: Bill Cheatham - A
C: R-50
C: Old-Time, Bluegrass
M: C|
Z:
R: reel
K: A
|:"A"E2c2 c4| cBAc BAFE| "D"F2d2 d4| fgaf ecBA|
|:"A"ecea "D"fdfa| "E"gefg "A"a2eg| "A"agae "D"fgaf| "A"ecBA "E"B2cd|

